X: 235
T: Ferro
P: Longways for as many as will
%R: reel
B: "The Dancing-Master" printed by John Walsh, London
S: 6: CCDM1 http://imslp.org/wiki/The_Compleat_Country_Dancing-Master_(Various) V.1 p.7 #14
Z: 2012-2013 John Chambers <jc:trillian.mit.edu>
N: 2nd part has initial repeat but no final repeat.
M: C|
L: 1/8
K: D
% - - - - - - - - - - - - - - - - - - - - - - - - -
de |\
f2d2 a2A2 | dcde d2d2 |\
A2d2 edcB | A6 :|\
|: AG |\
F2D2 F2G2 | A4- Adcd |
Adcd Adcd | TF4 def2 |\
B2B2 efg2 | c2c2 fga2 |\
d2e2 A2dc | d6 :|
% - - - - - - - - - - - - - - - - - - - - - - - - -
%%begintext align
%% The 1st Man figures round the 3d Man, the 1st Wo. at the
%% same Time goes round the 2d Wo. on the inside .|  The 1st
%% Man goes round the 2d Wo. on the right Hand side, 1st Wo.
%% at the same Time goes round the 3d Man on the right Hand
%% side :|  The 1st Man leads abreast with the 2d and 3d We. and
%% foots it, 1st Wo. doing the same at the same Time with the 2d
%% and 3d Men, the 1st Man cast down, and the 1st Wo. cast up at
%% the same Time .|  Then the 1st Man leads abreast with the
%% 3d Cu. and foots it, 1st Wo. does the same at the same Time
%% with the 2d, 1st Cu. turn Hands in the 2d Cu. Place.
%%endtext

%%sep 1 1 500
%%sep 1 1 500
